X: 16300
T: Grinders, The
R: slip jig
M: 9/8
K: Gmajor
|:ABA A2 B G3|ABA A2 B d2 B|ABA A2 B G3|GAG GAB d2 B:|
g3 edc B3|g3 efg a2 f|g3 edc B3|ABA A2 B d2 B|
g3 edc B3|g3 efg a2 f|bag agf gfe|ABA A2 B d3||

